src/shared/assets/icons/logo.svg

<svg width="248" height="158" viewBox="0 0 248 158" fill="none" xmlns="http://www.w3.org/2000/svg">
<g clip-path="url(#clip0_69_1341)">
<path fill-rule="evenodd" clip-rule="evenodd" d="M33.27 96.213H15.7726V74.2443H22.5841L33.2825 96.213H33.27ZM47.9178 47.4949V91.9565L34.6198 68.49L47.9178 47.4824V47.4949ZM15.7726 44.6489H33.6699L22.5841 63.4846H15.7726V44.6489ZM0 44.6489H0.962354V96.2005H0V44.6489Z" fill="white"/>
<path fill-rule="evenodd" clip-rule="evenodd" d="M62.1531 54.3726H67.7647C69.4895 54.3726 72.4015 54.5224 74.2762 56.0202C76.3759 57.6679 76.6009 60.3516 76.6009 61.8494C76.6009 63.3473 76.3759 66.031 74.2762 67.6786C72.4015 69.1765 69.4895 69.3263 67.7647 69.3263H62.1531V54.3851V54.3726Z" fill="white"/>
<path fill-rule="evenodd" clip-rule="evenodd" d="M113.945 54.3726H115.595L120.982 73.8698H108.571L113.945 54.3726Z" fill="white"/>
<path fill-rule="evenodd" clip-rule="evenodd" d="M127.493 96.213H102.06L105.422 84.7793H124.119L127.493 96.213Z" fill="white"/>
<path fill-rule="evenodd" clip-rule="evenodd" d="M126.093 44.6489H157.089C154.377 45.4852 151.74 46.6835 149.302 48.3936C143.541 52.4253 138.829 59.2282 138.829 70.0627C138.829 82.5325 144.966 88.9608 149.302 91.9565C152.402 94.091 156.001 95.4141 159.701 96.213H143.203L126.093 44.6614V44.6489Z" fill="white"/>
<path fill-rule="evenodd" clip-rule="evenodd" d="M154.077 69.9129C154.077 67.1544 154.377 61.6996 156.764 57.8052C158.039 55.7831 161.026 52.2007 167.012 51.9011V87.9123C161.776 87.6876 158.563 84.9291 156.764 82.0082C154.364 78.1262 154.077 72.7464 154.077 69.9005" fill="white"/>
<path fill-rule="evenodd" clip-rule="evenodd" d="M76.9883 44.6489H103.459L86.3494 96.2005H62.1531V80.061H67.3148C73.1514 80.061 79.5879 79.6865 84.5122 76.4037C90.3488 72.5217 91.4736 66.9172 91.4736 61.9867C91.4736 57.0562 90.3488 51.4517 84.5122 47.5698C82.25 46.0594 79.6754 45.1732 76.9883 44.6364" fill="white"/>
<path fill-rule="evenodd" clip-rule="evenodd" d="M193.871 69.9129C193.871 72.7464 193.571 78.1262 191.184 82.0207C189.384 84.9291 186.172 87.7001 180.935 87.9248V51.9136C186.172 52.1383 189.384 54.8968 191.184 57.8177C193.583 61.6996 193.871 67.0795 193.871 69.9254M233.777 96.213H247.988V54.7595H233.777V96.213ZM204.907 54.747C207.469 58.604 209.131 63.6219 209.131 70.0627C209.131 82.3952 202.994 88.7361 198.657 91.7319C195.32 94.0286 191.384 95.4016 187.384 96.213H218.967V54.7595H204.894L204.907 54.747ZM204.757 44.6489H190.871C193.583 45.4852 196.22 46.6835 198.657 48.3936C200.932 49.9788 203.032 52.0009 204.757 54.5348V44.6489Z" fill="white"/>
<path d="M53.6294 127.181C53.6294 129.403 53.5544 131.55 52.4421 133.56C51.1923 135.782 49.1051 136.755 47.0929 136.755C45.0807 136.755 42.9935 135.782 41.7437 133.56C40.6314 131.55 40.5564 129.391 40.5564 127.181C40.5564 124.972 40.6314 122.813 41.7437 120.803C42.9935 118.581 45.0807 117.608 47.0929 117.608C49.1051 117.608 51.1923 118.581 52.4421 120.803C53.5544 122.813 53.6294 124.972 53.6294 127.181ZM63.078 95.5514H50.2299C44.1184 95.5514 38.0068 95.6887 33.07 100.482C27.2334 106.037 27.0959 114.849 27.0959 119.293V122.488C27.0959 126.507 27.5834 133.934 31.8202 139.139C36.6195 144.969 43.6309 145.518 47.5929 145.518C51.8297 145.518 57.6663 144.756 62.1157 140.662C64.3403 138.578 67.5398 134.421 67.6773 127.194C67.8148 120.741 65.3777 116.434 62.3906 113.726C60.3784 111.916 56.629 109.419 50.4424 109.419C46.0681 109.419 43.281 110.593 40.7189 112.952V110.942C40.7189 108.096 42.0437 106.636 42.7311 106.012C44.5433 104.489 47.5179 104.414 49.8175 104.414H63.0905V95.5265L63.078 95.5514Z" fill="white"/>
<path d="M99.185 126.557C99.185 128.217 99.0475 130.726 97.7977 132.661C96.5479 134.608 94.7356 135.507 92.3735 135.507C90.0114 135.507 88.1991 134.608 86.8868 132.586C85.637 130.639 85.4995 128.355 85.4995 126.545C85.4995 124.735 85.637 122.526 86.8868 120.578C88.2116 118.569 90.0863 117.657 92.3735 117.657C94.6607 117.657 96.5479 118.556 97.7977 120.503C98.91 122.238 99.185 124.385 99.185 126.545M112.308 109.419H99.3099L98.8225 113.788C96.5979 110.181 92.7734 108.308 87.9867 108.308C82.8499 108.308 78.888 110.318 76.101 113.438C73.6013 116.21 71.4517 120.591 71.4517 126.757C71.4517 132.923 73.6013 137.304 76.101 140.076C78.8755 143.196 82.8374 145.206 87.9867 145.206C95.2856 145.206 97.9852 141.112 98.8225 139.589L99.3099 144.095H112.308V109.394V109.419Z" fill="white"/>
<path d="M135.08 123.025V130.177H136.604C137.504 130.177 139.729 130.24 140.779 131.35C141.404 132.049 141.754 133.16 141.679 134.271C141.604 135.445 141.191 136.418 140.016 137.117C138.979 137.741 137.929 137.741 136.754 137.741C135.429 137.741 134.18 137.666 133.005 136.705C131.48 135.457 131.405 133.722 131.405 132.611V131.775H117.507C117.507 137.255 120.632 141.486 125.568 143.708C129.393 145.443 133.142 145.655 136.892 145.655C140.641 145.655 145.303 145.518 149.265 143.645C153.289 141.773 155.589 138.79 155.589 134.209C155.589 132.262 155.102 130.389 153.789 128.866C153.089 128.03 151.777 126.857 149.69 126.37C150.802 126.021 152.327 125.334 153.577 123.524C154.614 122.001 154.902 120.404 154.902 118.731C154.839 114.287 152.539 111.653 148.927 109.918C146.29 108.67 142.678 107.909 137.254 107.909C130.93 107.909 127.531 109.082 125.718 109.918C121.832 111.728 118.357 115.673 118.22 121.502H131.83V120.179C131.83 118.369 132.592 117.196 133.355 116.571C134.392 115.673 135.642 115.461 136.829 115.461C137.529 115.461 138.979 115.461 140.029 116.297C141.079 117.133 141.279 118.381 141.279 119.205C141.279 119.967 141.141 121.078 140.304 121.914C139.266 122.95 137.867 123.025 136.617 123.025H135.092H135.08Z" fill="white"/>
<path d="M187.097 126.557C187.097 128.217 186.959 130.726 185.709 132.661C184.46 134.608 182.647 135.507 180.285 135.507C177.923 135.507 176.123 134.608 174.799 132.586C173.549 130.639 173.411 128.355 173.411 126.545C173.411 124.735 173.549 122.526 174.799 120.578C176.123 118.569 177.998 117.657 180.285 117.657C182.572 117.657 184.46 118.556 185.709 120.503C186.822 122.238 187.097 124.385 187.097 126.545M200.22 109.419H187.234L186.747 113.788C184.522 110.181 180.698 108.308 175.911 108.308C170.774 108.308 166.812 110.318 164.025 113.438C161.526 116.21 159.363 120.591 159.363 126.757C159.363 132.923 161.513 137.304 164.025 140.076C166.8 143.196 170.762 145.206 175.911 145.206C183.21 145.206 185.922 141.112 186.747 139.589L187.234 144.095H200.22V109.394V109.419Z" fill="white"/>
<path d="M206.794 109.419V157.988H220.279V139.601C222.504 143.209 226.328 145.081 231.115 145.081C236.952 145.081 240.839 142.447 243.001 140.088C245.5 137.379 247.663 132.873 247.663 126.769C247.663 120.666 245.513 116.147 243.001 113.451C240.289 110.468 236.189 108.458 231.115 108.458C227.566 108.458 222.841 109.569 220.279 113.8L219.792 109.432H206.794V109.419ZM219.929 126.557C219.929 124.747 220.142 122.401 221.254 120.591C222.291 118.856 224.029 117.682 226.741 117.682C229.028 117.682 230.915 118.581 232.227 120.591C233.477 122.538 233.615 124.822 233.615 126.557C233.615 128.292 233.477 130.651 232.227 132.599C230.903 134.608 229.028 135.507 226.741 135.507C224.029 135.507 222.291 134.334 221.254 132.599C220.142 130.789 219.929 128.442 219.929 126.557Z" fill="white"/>
<path d="M109.708 15.0411C112.133 13.6306 114.245 11.908 115.97 10.2604C117.695 11.908 119.807 13.6306 122.232 15.0411H109.696H109.708ZM128.481 33.0779H123.281C119.544 28.9338 117.47 23.6538 117.47 18.0368H126.506C126.506 23.167 127.181 28.2098 128.481 33.0779ZM108.659 33.0779H103.447C104.747 28.2223 105.422 23.1795 105.422 18.0368H114.458C114.458 23.6413 112.396 28.9338 108.659 33.0779ZM132.53 15.0411C126.656 15.0411 121.332 11.3713 117.47 7.52678V4.51856H121.982L120.469 0.0124817H114.445V7.52678C110.596 11.3713 105.272 15.0411 99.385 15.0411V18.0493H102.397C102.397 24.4402 101.31 30.5315 99.385 36.0986H109.971C112.621 33.4524 114.67 30.207 115.958 26.6121C117.245 30.207 119.282 33.4524 121.944 36.0986H132.53C130.605 30.544 129.518 24.4402 129.518 18.0493H132.53V15.0411Z" fill="white"/>
<path d="M87.5368 27.024C86.612 25.7134 85.8996 24.2405 85.4372 22.6927L84.7248 20.2961L82.4501 21.3321C81.2503 21.8813 80.0005 22.2558 78.7257 22.468C78.9381 21.1948 79.3131 19.9591 79.863 18.7608L80.9003 16.489L78.5007 15.79C76.9509 15.3282 75.4762 14.6167 74.1639 13.6805C75.6636 12.7818 77.3759 12.3075 79.1631 12.3075C81.7627 12.3075 84.1998 13.3185 86.0496 15.1534C89.2616 18.3614 89.749 23.2793 87.5243 27.0115M81.9877 31.0183C80.9878 29.7202 80.4504 28.2348 80.4504 26.6995C80.4504 25.8257 80.6379 24.9769 80.9753 24.1656C81.5752 23.9908 82.1626 23.7911 82.7251 23.554C83.2375 24.5401 83.5249 25.601 83.5249 26.6995C83.5249 28.2348 82.9875 29.7202 81.9877 31.0183ZM78.8132 29.8325C78.2257 31.2555 77.1634 32.4163 75.7386 33.2277C75.4512 32.1917 75.4137 31.1556 75.5761 30.1571C76.6635 29.9199 77.6758 29.5329 78.6257 29.0586C78.6882 29.2833 78.7507 29.5205 78.8382 29.7451C78.8382 29.7701 78.8257 29.7951 78.8132 29.82V29.8325ZM72.889 28.3471C72.964 26.3625 73.489 24.5276 74.4013 22.9423C75.1137 22.9423 75.8386 22.855 76.551 22.6927C76.451 23.4042 76.3885 24.1281 76.3885 24.8521C77.1259 24.8521 77.8383 24.7897 78.5382 24.7023C78.3757 25.4138 78.2882 26.1253 78.2882 26.8493C76.701 27.7605 74.8638 28.2722 72.8766 28.3596L72.889 28.3471ZM70.202 19.2351C71.5018 18.2365 72.9765 17.6998 74.5263 17.6998C75.6261 17.6998 76.6885 17.9869 77.6758 18.4987C77.4384 19.0728 77.2384 19.6595 77.0634 20.2462C76.251 20.5832 75.3887 20.7704 74.5138 20.7704C72.9765 20.7704 71.4893 20.2337 70.1895 19.2351H70.202ZM71.7142 31.6799C70.6144 32.8907 69.1021 33.6396 67.3649 33.8643C67.5524 32.3539 68.1523 31.0058 69.1146 29.9449C69.577 29.4456 70.127 29.0337 70.7144 28.6841C70.7144 29.2583 70.7269 29.845 70.7894 30.4317C71.3893 30.4941 71.9642 30.5066 72.5391 30.4941C72.3016 30.906 72.0392 31.3054 71.7142 31.6549V31.6799ZM67.9773 25.4887C68.8147 24.0283 70.0395 22.9673 71.4768 22.4056C71.7017 22.4805 71.9267 22.5429 72.1517 22.6053C71.6767 23.554 71.3018 24.5775 71.0518 25.6759C70.7019 25.7259 70.3394 25.7633 69.977 25.7633C69.3146 25.7633 68.6397 25.6759 67.9773 25.4887ZM91.0863 11.6958L89.5615 10.173L86.8119 12.9191C82.1376 9.02465 75.1762 9.26181 70.7894 13.6431C71.5642 14.4045 72.4016 15.0536 73.264 15.6402C71.0268 15.9648 68.8522 17.1631 67.1274 19.2351C67.7648 19.9965 68.4647 20.6331 69.2021 21.1574C67.3649 22.3307 65.9026 24.1781 65.1402 26.6495C66.1901 27.1988 67.2399 27.5607 68.2897 27.748C66.0901 29.6328 64.8653 32.5786 65.1902 36.0237C68.6397 36.3482 71.5767 35.1125 73.4765 32.9156C73.6639 33.9641 74.0264 35.0126 74.5763 36.0611C77.0509 35.2997 78.9006 33.8393 80.0755 32.0044C80.6004 32.7409 81.2378 33.4399 82.0002 34.0765C84.0624 32.3664 85.2622 30.207 85.5996 27.9727C86.1995 28.8464 86.8619 29.6578 87.6118 30.4067C91.9987 26.0254 92.2361 19.0728 88.3367 14.4045L91.0988 11.6584L91.0863 11.6958Z" fill="white"/>
<path d="M54.3293 18.7733C54.3293 19.4348 54.0669 20.0589 53.6044 20.5208L49.3801 24.7398V13.8178H54.3293V18.7608V18.7733ZM44.4183 33.6146H32.0452C30.6829 33.6146 29.5706 32.5037 29.5706 31.1432V13.8303H32.0452V31.1432H34.5198V13.8303H36.9945V31.1432H39.4691V13.8303H41.9437V31.1432H44.4183V13.8303H46.893V31.1432C46.893 32.5037 45.7806 33.6146 44.4183 33.6146ZM46.893 8.88734V11.3588H29.5581V8.88734H46.893ZM54.3293 11.3588H49.3801V6.41586H27.0959V31.1432C27.0959 33.8768 29.3081 36.0861 32.0452 36.0861H44.4183C47.1554 36.0861 49.3676 33.8768 49.3676 31.1432V28.2473L55.3417 22.2808C56.2415 21.3821 56.7915 20.1463 56.7915 18.7857V13.8428C56.7915 12.4822 55.6791 11.3713 54.3168 11.3713L54.3293 11.3588Z" fill="white"/>
<path d="M162.575 33.3775C161.826 33.3775 161.213 32.7658 161.213 32.0169C161.213 31.268 161.826 30.6563 162.575 30.6563C163.325 30.6563 163.938 31.268 163.938 32.0169C163.938 32.7658 163.325 33.3775 162.575 33.3775ZM158.751 30.6688H147.865L149.927 23.1046C151.34 23.6039 152.852 23.8785 154.427 23.8785C156.001 23.8785 157.514 23.5914 158.926 23.1046L160.426 28.5718C159.651 29.0586 159.063 29.7826 158.751 30.6563V30.6688ZM143.916 13.0439H164.95C163.738 17.7123 159.488 21.1823 154.439 21.1823C149.39 21.1823 145.128 17.7248 143.916 13.0439ZM163.088 28.0101L161.426 21.9313C165.363 19.5596 168.012 15.2533 168.012 10.3228H140.866C140.866 15.2533 143.503 19.5596 147.453 21.9313L143.591 36.0861H146.403L147.14 33.3775H158.764C159.326 34.9502 160.813 36.0861 162.588 36.0861C164.838 36.0861 166.662 34.2637 166.662 32.0169C166.662 29.9449 165.1 28.2473 163.1 27.9976L163.088 28.0101Z" fill="white"/>
<path d="M150.502 7.61416H147.64L149.002 3.55743H151.865L150.502 7.61416Z" fill="white"/>
<path d="M155.939 7.61416H153.077L154.427 3.55743H157.301L155.939 7.61416Z" fill="white"/>
<path d="M161.363 7.61416H158.501L159.863 3.55743H162.725L161.363 7.61416Z" fill="white"/>
</g>
<defs>
<clipPath id="clip0_69_1341">
<rect width="248" height="158" fill="white"/>
</clipPath>
</defs>
</svg>

<svg xmlns="http://www.w3.org/2000/svg" width="248" height="158" fill="none" viewBox="0 0 248 158"><g fill="#fff" clip-path="url(#a)"><path fill-rule="evenodd" d="M33.27 96.213H15.773V74.244h6.811l10.699 21.969zm14.648-48.718v44.462L34.62 68.49l13.298-21.008zm-32.145-2.846H33.67L22.584 63.485h-6.811zM0 44.649h.962V96.2H0zm62.153 9.724h5.612c1.725 0 4.636.15 6.511 1.647 2.1 1.648 2.325 4.332 2.325 5.83 0 1.497-.225 4.181-2.325 5.829-1.874 1.498-4.786 1.647-6.511 1.647h-5.612zm51.792 0h1.65l5.387 19.497h-12.411zm13.548 41.84H102.06l3.362-11.434h18.697zm-1.4-51.564h30.996c-2.712.836-5.349 2.035-7.787 3.745-5.761 4.031-10.473 10.834-10.473 21.669 0 12.47 6.137 18.898 10.473 21.894 3.1 2.134 6.699 3.457 10.399 4.256h-16.498l-17.11-51.552z" clip-rule="evenodd"/><path fill-rule="evenodd" d="M154.077 69.913c0-2.759.3-8.213 2.687-12.108 1.275-2.022 4.262-5.604 10.248-5.904v36.011c-5.236-.224-8.449-2.983-10.248-5.904-2.4-3.882-2.687-9.262-2.687-12.108M76.988 44.649h26.471L86.349 96.2H62.153V80.06h5.162c5.836 0 12.273-.375 17.197-3.657 5.837-3.882 6.962-9.487 6.962-14.417s-1.125-10.535-6.962-14.417c-2.262-1.51-4.837-2.397-7.524-2.934m116.883 25.278c0 2.833-.3 8.213-2.687 12.108-1.8 2.908-5.012 5.68-10.249 5.904V51.914c5.237.224 8.449 2.983 10.249 5.904 2.399 3.882 2.687 9.261 2.687 12.107m39.906 26.288h14.211V54.76h-14.211zm-28.87-41.466c2.562 3.857 4.224 8.875 4.224 15.316 0 12.332-6.137 18.673-10.474 21.669-3.337 2.297-7.273 3.67-11.273 4.481h31.583V54.76h-14.073zm-.15-10.098h-13.886c2.712.836 5.349 2.035 7.786 3.745a23.8 23.8 0 0 1 6.1 6.14z" clip-rule="evenodd"/><path d="M53.63 127.181c0 2.222-.076 4.369-1.188 6.379-1.25 2.222-3.337 3.195-5.35 3.195-2.011 0-4.099-.973-5.348-3.195-1.113-2.01-1.188-4.169-1.188-6.379s.075-4.368 1.188-6.378c1.25-2.222 3.337-3.195 5.349-3.195s4.1.973 5.35 3.195c1.111 2.01 1.186 4.169 1.186 6.378m9.448-31.63H50.23c-6.112 0-12.223.138-17.16 4.931-5.837 5.555-5.974 14.367-5.974 18.811v3.195c0 4.019.487 11.446 4.724 16.651 4.8 5.83 11.81 6.379 15.773 6.379 4.237 0 10.073-.762 14.523-4.856 2.224-2.084 5.424-6.241 5.561-13.468.138-6.453-2.3-10.76-5.286-13.468-2.013-1.81-5.762-4.307-11.949-4.307-4.374 0-7.161 1.174-9.723 3.533v-2.01c0-2.846 1.325-4.306 2.012-4.93 1.812-1.523 4.787-1.598 7.087-1.598H63.09v-8.888zm36.108 31.006c0 1.66-.138 4.169-1.387 6.104-1.25 1.947-3.062 2.846-5.424 2.846s-4.175-.899-5.487-2.921c-1.25-1.947-1.388-4.231-1.388-6.041s.138-4.019 1.388-5.967c1.325-2.009 3.2-2.921 5.487-2.921s4.174.899 5.424 2.846c1.112 1.735 1.387 3.882 1.387 6.042m13.123-17.126H99.31l-.487 4.369c-2.225-3.607-6.05-5.48-10.836-5.48-5.137 0-9.099 2.01-11.886 5.13-2.5 2.772-4.65 7.153-4.65 13.319s2.15 10.547 4.65 13.319c2.775 3.12 6.736 5.13 11.886 5.13 7.299 0 9.998-4.094 10.836-5.617l.487 4.506h12.998v-34.701zm22.772 13.606v7.152h1.524c.9 0 3.125.063 4.175 1.173.625.699.975 1.81.9 2.921-.075 1.174-.488 2.147-1.663 2.846-1.037.624-2.087.624-3.262.624-1.325 0-2.574-.075-3.749-1.036-1.525-1.248-1.6-2.983-1.6-4.094v-.836h-13.898c0 5.48 3.125 9.711 8.061 11.933 3.825 1.735 7.574 1.947 11.324 1.947s8.411-.137 12.373-2.01c4.024-1.872 6.324-4.855 6.324-9.436 0-1.947-.487-3.82-1.8-5.343a7.55 7.55 0 0 0-4.099-2.496c1.112-.349 2.637-1.036 3.887-2.846 1.037-1.523 1.325-3.12 1.325-4.793-.063-4.444-2.363-7.078-5.975-8.813-2.637-1.248-6.249-2.009-11.673-2.009-6.324 0-9.723 1.173-11.536 2.009-3.886 1.81-7.361 5.755-7.498 11.584h13.61v-1.323c0-1.81.762-2.983 1.525-3.608 1.037-.898 2.287-1.11 3.474-1.11.7 0 2.15 0 3.2.836s1.25 2.084 1.25 2.908c0 .762-.138 1.873-.975 2.709-1.038 1.036-2.437 1.111-3.687 1.111zm52.017 3.532c0 1.66-.138 4.169-1.388 6.104-1.249 1.947-3.062 2.846-5.424 2.846s-4.162-.899-5.486-2.921c-1.25-1.947-1.388-4.231-1.388-6.041s.138-4.019 1.388-5.967c1.324-2.009 3.199-2.921 5.486-2.921s4.175.899 5.424 2.846c1.113 1.735 1.388 3.882 1.388 6.042m13.123-17.126h-12.986l-.487 4.369c-2.225-3.607-6.049-5.48-10.836-5.48-5.137 0-9.099 2.01-11.886 5.13-2.499 2.772-4.662 7.153-4.662 13.319s2.15 10.547 4.662 13.319c2.775 3.12 6.737 5.13 11.886 5.13 7.299 0 10.011-4.094 10.836-5.617l.487 4.506h12.986v-34.701zm6.574 0v48.569h13.485v-18.387c2.225 3.608 6.049 5.48 10.836 5.48 5.837 0 9.724-2.634 11.886-4.993 2.499-2.709 4.662-7.215 4.662-13.319 0-6.103-2.15-10.622-4.662-13.318-2.712-2.983-6.812-4.993-11.886-4.993-3.549 0-8.274 1.111-10.836 5.342l-.487-4.368h-12.998zm13.135 17.138c0-1.81.213-4.156 1.325-5.966 1.037-1.735 2.775-2.909 5.487-2.909 2.287 0 4.174.899 5.486 2.909 1.25 1.947 1.388 4.231 1.388 5.966s-.138 4.094-1.388 6.042c-1.324 2.009-3.199 2.908-5.486 2.908-2.712 0-4.45-1.173-5.487-2.908-1.112-1.81-1.325-4.157-1.325-6.042M109.708 15.041c2.425-1.41 4.537-3.133 6.262-4.78 1.725 1.647 3.837 3.37 6.262 4.78h-12.536zm18.773 18.037h-5.2c-3.737-4.144-5.811-9.424-5.811-15.041h9.036c0 5.13.675 10.173 1.975 15.04m-19.822 0h-5.212a58 58 0 0 0 1.975-15.041h9.036c0 5.604-2.062 10.897-5.799 15.04M132.53 15.04c-5.874 0-11.198-3.67-15.06-7.514V4.519h4.512L120.469.012h-6.024v7.515c-3.849 3.844-9.173 7.514-15.06 7.514v3.008h3.012a55.2 55.2 0 0 1-3.012 18.05h10.586a25.6 25.6 0 0 0 5.987-9.487c1.287 3.595 3.324 6.84 5.986 9.487h10.586c-1.925-5.555-3.012-11.659-3.012-18.05h3.012zM87.537 27.024a15 15 0 0 1-2.1-4.331l-.712-2.397-2.275 1.036c-1.2.55-2.45.924-3.724 1.136a14.6 14.6 0 0 1 1.137-3.707l1.037-2.272-2.4-.699a14.7 14.7 0 0 1-4.336-2.11 9.7 9.7 0 0 1 5-1.373 9.7 9.7 0 0 1 6.886 2.846c3.212 3.208 3.699 8.126 1.474 11.859m-5.536 4.006c-1-1.298-1.538-2.783-1.538-4.318 0-.874.188-1.723.525-2.534a16 16 0 0 0 1.75-.612c.513.986.8 2.047.8 3.146 0 1.535-.538 3.02-1.537 4.318m-3.175-1.186c-.587 1.424-1.65 2.584-3.074 3.396a7.1 7.1 0 0 1-.163-3.07c1.088-.238 2.1-.625 3.05-1.1.062.225.125.462.212.687 0 .025-.012.05-.025.075zm-5.924-1.485c.075-1.985.6-3.82 1.512-5.405.713 0 1.438-.087 2.15-.25-.1.712-.163 1.436-.163 2.16.738 0 1.45-.062 2.15-.15a9.6 9.6 0 0 0-.25 2.147c-1.587.912-3.424 1.423-5.411 1.51zm-2.687-9.112c1.3-.998 2.775-1.535 4.324-1.535 1.1 0 2.163.287 3.15.799-.238.574-.438 1.16-.613 1.747a6.7 6.7 0 0 1-2.55.524c-1.537 0-3.024-.536-4.324-1.535zm1.512 12.445c-1.1 1.21-2.612 1.96-4.35 2.184.188-1.51.788-2.858 1.75-3.92a7.1 7.1 0 0 1 1.6-1.26c0 .574.013 1.161.075 1.748.6.062 1.175.075 1.75.062a6.3 6.3 0 0 1-.825 1.16zm-3.737-6.191c.838-1.46 2.063-2.522 3.5-3.083.225.075.45.137.675.2-.475.948-.85 1.971-1.1 3.07-.35.05-.713.087-1.075.087a7.4 7.4 0 0 1-2-.274m23.11-13.793-1.526-1.523-2.75 2.746c-4.673-3.894-11.635-3.657-16.022.724.775.761 1.613 1.41 2.475 1.997-2.237.325-4.412 1.523-6.137 3.595a11 11 0 0 0 2.075 1.922c-1.837 1.174-3.3 3.021-4.062 5.493 1.05.549 2.1.91 3.15 1.098-2.2 1.885-3.425 4.83-3.1 8.276 3.45.324 6.387-.912 8.287-3.108.187 1.048.55 2.097 1.1 3.145 2.474-.761 4.324-2.222 5.499-4.057A11 11 0 0 0 82 34.077c2.062-1.71 3.262-3.87 3.6-6.104.6.873 1.262 1.685 2.012 2.434 4.387-4.382 4.624-11.334.725-16.003l2.762-2.746zM54.33 18.773c0 .662-.263 1.286-.726 1.748L49.38 24.74V13.818h4.95zm-9.912 14.842H32.045a2.48 2.48 0 0 1-2.474-2.472V13.83h2.474v17.313h2.475V13.83h2.474v17.313h2.475V13.83h2.475v17.313h2.474V13.83h2.475v17.313a2.48 2.48 0 0 1-2.475 2.472m2.475-24.728v2.472H29.558V8.887zm7.436 2.472H49.38V6.416H27.096v24.727a4.94 4.94 0 0 0 4.95 4.943h12.372c2.737 0 4.95-2.21 4.95-4.943v-2.896l5.974-5.966a4.92 4.92 0 0 0 1.45-3.495v-4.943a2.48 2.48 0 0 0-2.475-2.472zm108.246 22.019a1.365 1.365 0 0 1-1.362-1.361c0-.749.613-1.36 1.362-1.36s1.363.611 1.363 1.36-.613 1.36-1.363 1.36m-3.824-2.71h-10.886l2.062-7.563a13.5 13.5 0 0 0 4.5.773 13.8 13.8 0 0 0 4.499-.773l1.5 5.467a4.06 4.06 0 0 0-1.675 2.084zm-14.835-17.624h21.034c-1.212 4.668-5.462 8.138-10.511 8.138s-9.311-3.457-10.523-8.138m19.172 14.966-1.662-6.079c3.937-2.371 6.586-6.678 6.586-11.608h-27.146c0 4.93 2.637 9.237 6.587 11.608l-3.862 14.155h2.812l.737-2.709h11.624a4.06 4.06 0 0 0 3.824 2.71 4.07 4.07 0 0 0 4.074-4.07c0-2.072-1.562-3.77-3.562-4.02zM150.502 7.614h-2.862l1.362-4.057h2.863zm5.437 0h-2.862l1.35-4.057h2.874zm5.424 0h-2.862l1.362-4.057h2.862z"/></g><defs><clipPath id="a"><path fill="#fff" d="M0 0h248v158H0z"/></clipPath></defs></svg>
